svg/fluentui-system-icons/ic_fluent_book_arrow_clockwise_20_filled.svg

<svg width="20" height="20" viewBox="0 0 20 20" fill="none" xmlns="http://www.w3.org/2000/svg">
<path d="M18 2.98047C18 3.25661 17.7761 3.48047 17.5 3.48047H15.5C15.2239 3.48047 15 3.25661 15 2.98047C15 2.70433 15.2239 2.48047 15.5 2.48047H16.304C15.7773 2.16296 15.1604 1.98047 14.5 1.98047C12.567 1.98047 11 3.54747 11 5.48047C11 7.41347 12.567 8.98047 14.5 8.98047C16.433 8.98047 18 7.41347 18 5.48047C18 5.20433 18.2239 4.98047 18.5 4.98047C18.7761 4.98047 19 5.20433 19 5.48047C19 7.96575 16.9853 9.98047 14.5 9.98047C12.0147 9.98047 10 7.96575 10 5.48047C10 2.99519 12.0147 0.980469 14.5 0.980469C15.4246 0.980469 16.2849 1.25976 17 1.73831V0.980469C17 0.85249 17.0481 0.735742 17.1272 0.647303C17.2187 0.544914 17.3518 0.480469 17.5 0.480469C17.7761 0.480469 18 0.704327 18 0.980469V2.98047ZM9.02422 6C9.28599 8.79392 11.6376 10.9805 14.5 10.9805C15.02 10.9805 15.5232 10.9083 16 10.7734V15C16 15.5523 15.5523 16 15 16H5C5 16.5523 5.44772 17 6 17H15.5C15.7761 17 16 17.2239 16 17.5C16 17.7761 15.7761 18 15.5 18H6C4.89543 18 4 17.1046 4 16V4C4 2.89543 4.89543 2 6 2H10.2411C9.76669 2.57983 9.40835 3.25832 9.20155 4H9.20703C9.07217 4.47683 9 4.97999 9 5.5C9 5.66854 9.00758 5.83532 9.02242 6H9.02422Z" fill="#212121"/>
</svg>

<svg xmlns="http://www.w3.org/2000/svg" width="20" height="20"><path d="M18 2.98a.5.5 0 0 1-.5.5h-2a.5.5 0 0 1 0-1h.804a3.5 3.5 0 1 0 1.696 3 .5.5 0 0 1 1 0 4.5 4.5 0 1 1-2-3.742V.98a.498.498 0 0 1 .5-.5.5.5 0 0 1 .5.5v2ZM9.024 6A5.5 5.5 0 0 0 16 10.773V15a1 1 0 0 1-1 1H5a1 1 0 0 0 1 1h9.5a.5.5 0 0 1 0 1H6a2 2 0 0 1-2-2V4a2 2 0 0 1 2-2h4.241a5.485 5.485 0 0 0-1.04 2h.006a5.504 5.504 0 0 0-.185 2h.002Z"/></svg>
